public/cloud-icons/azure/application/event-grid-input-output.svg

<?xml version="1.0" encoding="UTF-8" standalone="no"?>
<!-- Generated by Microsoft Visio, SVG Export Event Grid Input Output.svg Page-1 -->

<svg
   xmlns:dc="http://purl.org/dc/elements/1.1/"
   xmlns:cc="http://creativecommons.org/ns#"
   xmlns:rdf="http://www.w3.org/1999/02/22-rdf-syntax-ns#"
   xmlns:svg="http://www.w3.org/2000/svg"
   xmlns="http://www.w3.org/2000/svg"
   xmlns:sodipodi="http://sodipodi.sourceforge.net/DTD/sodipodi-0.dtd"
   xmlns:inkscape="http://www.inkscape.org/namespaces/inkscape"
   width="56.693932"
   height="48.209488"
   viewBox="0 0 56.693934 48.209488"
   xml:space="preserve"
   class="st6"
   version="1.1"
   id="svg109"
   sodipodi:docname="Event Grid Input Output.svg"
   style="font-size:12px;overflow:visible;color-interpolation-filters:sRGB;fill:none;fill-rule:evenodd;stroke-linecap:square;stroke-miterlimit:3"
   inkscape:version="0.92.5 (2060ec1f9f, 2020-04-08)"><metadata
   id="metadata113"><rdf:RDF><cc:Work
       rdf:about=""><dc:format>image/svg+xml</dc:format><dc:type
         rdf:resource="http://purl.org/dc/dcmitype/StillImage" /></cc:Work></rdf:RDF></metadata><sodipodi:namedview
   pagecolor="#ffffff"
   bordercolor="#666666"
   borderopacity="1"
   objecttolerance="10"
   gridtolerance="10"
   guidetolerance="10"
   inkscape:pageopacity="0"
   inkscape:pageshadow="2"
   inkscape:window-width="640"
   inkscape:window-height="480"
   id="namedview111"
   showgrid="false"
   inkscape:zoom="2.6401459"
   inkscape:cx="28.35002"
   inkscape:cy="10.687412"
   inkscape:window-x="0"
   inkscape:window-y="0"
   inkscape:window-maximized="0"
   inkscape:current-layer="svg109" />
	<style
   type="text/css"
   id="style2">
	<![CDATA[
		.st1 {fill:#999999;stroke:none;stroke-width:7.17238}
		.st2 {fill:#999999;fill-opacity:0.5;stroke:none;stroke-width:7.17238}
		.st3 {fill:#949494;stroke:none;stroke-width:7.17238}
		.st4 {fill:url(#grad0-34);stroke:none;stroke-width:7.17238}
		.st5 {fill:url(#grad0-38);stroke:none;stroke-width:7.17238}
		.st6 {fill:none;fill-rule:evenodd;font-size:12px;overflow:visible;stroke-linecap:square;stroke-miterlimit:3}
	]]>
	</style>

	<defs
   id="Patterns_And_Gradients">
		<linearGradient
   id="grad0-34"
   x1="-0.0033540772"
   y1="70.713799"
   x2="24.253213"
   y2="70.713799"
   gradientTransform="scale(1.0619096,0.94169975)"
   gradientUnits="userSpaceOnUse">
			<stop
   offset="0"
   stop-color="#773adc"
   stop-opacity="1"
   id="stop4" />
			<stop
   offset="1"
   stop-color="#a67af4"
   stop-opacity="1"
   id="stop6" />
		</linearGradient>
		<linearGradient
   id="grad0-38"
   x1="-0.00021344278"
   y1="70.705446"
   x2="24.253488"
   y2="70.705446"
   gradientTransform="scale(1.0617842,0.94181101)"
   gradientUnits="userSpaceOnUse">
			<stop
   offset="0"
   stop-color="#1b93eb"
   stop-opacity="1"
   id="stop9" />
			<stop
   offset="1"
   stop-color="#6bb9f2"
   stop-opacity="1"
   id="stop11" />
		</linearGradient>
	</defs>
	<g
   id="g107"
   transform="translate(-7.1688283,-7.1724239)">
		<title
   id="title15">Page-1</title>
		<g
   id="group15311-1"
   transform="translate(7.17239,-34.0157)">
			<title
   id="title17">Event Grid Input Output.15311</title>
			<g
   id="group15312-2">
				<title
   id="title19">g10</title>
				<g
   id="group15313-3">
					<title
   id="title21">g14-9</title>
					<g
   id="group15314-4">
						<title
   id="title23">Icon691_DataBox_Gateway</title>
						<g
   id="group15315-5">
							<title
   id="title25">Icon-intune-341</title>
							<g
   id="group15316-6">
								<title
   id="title27">g48</title>
								<g
   id="group15317-7"
   transform="translate(0.883764,-35.8071)">
									<title
   id="title29">g20</title>
									<g
   id="shape15318-8">
										<title
   id="title31">path16</title>
										<path
   d="M 1.83,77.01 H 5.95 V 88.48 A 0.913779,0.910041 0 0 1 5.036221,89.390041 L 0.91,89.39 A 0.913779,0.910041 0 0 1 -0.003779,88.479959 L 0,78.83 a 1.82756,1.82008 0 0 1 1.83,-1.82 z"
   class="st1"
   id="path33"
   inkscape:connector-curvature="0"
   style="fill:#999999;stroke:none;stroke-width:7.17237997" />
									</g>
									<g
   id="shape15319-10">
										<title
   id="title36">path18</title>
										<path
   d="M 1.83,77.01 H 5.95 V 88.48 A 0.913779,0.910041 0 0 1 5.036221,89.390041 L 0.91,89.39 A 0.913779,0.910041 0 0 1 -0.003779,88.479959 L 0,78.83 a 1.82756,1.82008 0 0 1 1.83,-1.82 z"
   class="st2"
   id="path38"
   inkscape:connector-curvature="0"
   style="fill:#999999;fill-opacity:0.5;stroke:none;stroke-width:7.17237997" />
									</g>
								</g>
								<g
   id="group15320-12"
   transform="translate(49.2607,-35.8071)">
									<title
   id="title42">g26</title>
									<g
   id="shape15321-13">
										<title
   id="title44">path22</title>
										<path
   d="m 0,77.01 h 4.12 a 1.82756,1.82008 0 0 1 1.83,1.82 v 9.65 A 0.913779,0.910041 0 0 1 5.036221,89.390041 L 0.91,89.39 a 0.913779,0.910041 0 0 1 -0.913779,-0.910041 z"
   class="st1"
   id="path46"
   inkscape:connector-curvature="0"
   style="fill:#999999;stroke:none;stroke-width:7.17237997" />
									</g>
									<g
   id="shape15322-15">
										<title
   id="title49">path24</title>
										<path
   d="m 0,77.01 h 4.12 a 1.82756,1.82008 0 0 1 1.83,1.82 v 9.65 A 0.913779,0.910041 0 0 1 5.036221,89.390041 L 0.91,89.39 a 0.913779,0.910041 0 0 1 -0.913779,-0.910041 z"
   class="st2"
   id="path51"
   inkscape:connector-curvature="0"
   style="fill:#999999;fill-opacity:0.5;stroke:none;stroke-width:7.17237997" />
									</g>
								</g>
								<g
   id="shape15323-17"
   transform="rotate(90,24.59785,65.78605)">
									<title
   id="title55">path28</title>
									<path
   d="m 1.81,35.28 h 4 v 54.11 h -4 A 1.81088,1.80347 0 0 1 0,87.59 V 37.1 a 1.81088,1.80347 0 0 1 1.81,-1.82 z"
   class="st3"
   id="path57"
   inkscape:connector-curvature="0"
   style="fill:#949494;stroke:none;stroke-width:7.17237997" />
								</g>
								<g
   id="group15324-19"
   transform="translate(0.883764,-0.00332132)">
									<title
   id="title60">g34</title>
									<g
   id="shape15325-20">
										<title
   id="title62">path30</title>
										<path
   d="m 0.91,77.01 h 4.13 a 0.913779,0.910041 0 0 1 0.913779,0.910041 L 5.95,89.39 H 1.83 A 1.82756,1.82008 0 0 1 0,87.57 v -9.65 a 0.913779,0.910041 0 0 1 0.913779,-0.910041 z"
   class="st1"
   id="path64"
   inkscape:connector-curvature="0"
   style="fill:#999999;stroke:none;stroke-width:7.17237997" />
									</g>
									<g
   id="shape15326-22">
										<title
   id="title67">path32</title>
										<path
   d="m 0.91,77.01 h 4.13 a 0.913779,0.910041 0 0 1 0.913779,0.910041 L 5.95,89.39 H 1.83 A 1.82756,1.82008 0 0 1 0,87.57 v -9.65 a 0.913779,0.910041 0 0 1 0.913779,-0.910041 z"
   class="st2"
   id="path69"
   inkscape:connector-curvature="0"
   style="fill:#999999;fill-opacity:0.5;stroke:none;stroke-width:7.17237997" />
									</g>
								</g>
								<g
   id="group15327-24"
   transform="translate(49.2607)">
									<title
   id="title73">g40</title>
									<g
   id="shape15328-25">
										<title
   id="title75">path36</title>
										<path
   d="m 0.91,77 h 4.13 a 0.913779,0.910041 0 0 1 0.913779,0.910041 L 5.95,87.57 A 1.82756,1.82008 0 0 1 4.12,89.39 H 0 V 77.91 a 0.913779,0.910041 0 0 1 0.913779,-0.910041 z"
   class="st1"
   id="path77"
   inkscape:connector-curvature="0"
   style="fill:#999999;stroke:none;stroke-width:7.17237997" />
									</g>
									<g
   id="shape15329-27">
										<title
   id="title80">path38</title>
										<path
   d="m 0.91,77 h 4.13 a 0.913779,0.910041 0 0 1 0.913779,0.910041 L 5.95,87.57 A 1.82756,1.82008 0 0 1 4.12,89.39 H 0 V 77.91 a 0.913779,0.910041 0 0 1 0.913779,-0.910041 z"
   class="st2"
   id="path82"
   inkscape:connector-curvature="0"
   style="fill:#999999;fill-opacity:0.5;stroke:none;stroke-width:7.17237997" />
									</g>
								</g>
								<g
   id="shape15330-29"
   transform="rotate(-90,27.55385,61.84375)">
									<title
   id="title86">path42</title>
									<path
   d="m 1.81,35.28 h 4 v 54.11 h -4 A 1.81088,1.80347 0 0 1 0,87.59 v -50.5 a 1.81088,1.80347 0 0 1 1.81,-1.81 z"
   class="st3"
   id="path88"
   inkscape:connector-curvature="0"
   style="fill:#949494;stroke:none;stroke-width:7.17237997" />
								</g>
								<g
   id="shape15331-31"
   transform="translate(0,-13.144)">
									<title
   id="title91">path44</title>
									<path
   d="m 14.97,66.76 10.42,10.38 a 1.2406,1.23553 0 0 1 0,1.75 L 14.97,89.27 A 0.553603,0.551338 0 0 1 14.022872,88.878085 L 14.02,82.5 A 0.553603,0.551338 -180 0 0 13.466397,81.94534 L 0.44,81.94 A 0.440214,0.438414 0 0 1 -0.003549,81.498265 L 0,74.52 A 0.440214,0.438414 0 0 1 0.443549,74.081586 L 13.47,74.09 a 0.553603,0.551338 -180 0 0 0.553603,-0.55466 L 14.02,67.14 a 0.553603,0.551338 0 0 1 0.947128,-0.385273 z"
   class="st4"
   id="path93"
   inkscape:connector-curvature="0"
   style="fill:url(#grad0-34);stroke:none;stroke-width:7.17237997" />
								</g>
								<g
   id="shape15332-35"
   transform="translate(30.9384,-13.144)">
									<title
   id="title96">path46</title>
									<path
   d="m 14.97,66.76 10.42,10.38 a 1.24727,1.24217 0 0 1 0,1.75 L 14.97,89.27 A 0.553603,0.551338 0 0 1 14.022872,88.878085 L 14.02,82.5 A 0.556938,0.55466 -180 0 0 13.463062,81.94534 L 0.44,81.94 A 0.440214,0.438414 0 0 1 -2.14e-4,81.498265 L 0,74.52 A 0.440214,0.438414 0 0 1 0.440214,74.078265 L 13.47,74.08 a 0.556938,0.55466 -180 0 0 0.556938,-0.55466 L 14.02,67.14 a 0.553603,0.551338 0 0 1 0.947128,-0.385273 z"
   class="st5"
   id="path98"
   inkscape:connector-curvature="0"
   style="fill:url(#grad0-38);stroke:none;stroke-width:7.17237997" />
								</g>
							</g>
						</g>
					</g>
				</g>
			</g>
		</g>
	</g>
</svg>

<svg xmlns="http://www.w3.org/2000/svg" xml:space="preserve" width="56.694" height="48.209" style="font-size:12px;overflow:visible;color-interpolation-filters:sRGB;fill-rule:evenodd;stroke-linecap:square;stroke-miterlimit:3" viewBox="0 0 56.694 48.209"><defs><linearGradient id="a" x1="-.003" x2="24.253" y1="70.714" y2="70.714" gradientTransform="scale(1.06191 .9417)" gradientUnits="userSpaceOnUse"><stop offset="0" stop-color="#773adc"/><stop offset="1" stop-color="#a67af4"/></linearGradient><linearGradient id="b" x1="0" x2="24.253" y1="70.705" y2="70.705" gradientTransform="scale(1.06178 .94181)" gradientUnits="userSpaceOnUse"><stop offset="0" stop-color="#1b93eb"/><stop offset="1" stop-color="#6bb9f2"/></linearGradient></defs><g transform="translate(-7.169 -7.172)"><title>Page-1</title><g transform="translate(7.172 -34.016)"><title>Event Grid Input Output.15311</title><title>g10</title><title>g14-9</title><title>Icon691_DataBox_Gateway</title><title>Icon-intune-341</title><title>g48</title><g transform="translate(.884 -35.807)"><title>g20</title><title>path16</title><path d="M1.83 77.01h4.12v11.47a.914.91 0 0 1-.914.91H.91a.914.91 0 0 1-.914-.91L0 78.83a1.828 1.82 0 0 1 1.83-1.82" style="fill:#999;stroke:none;stroke-width:7.17237997"/><title>path18</title><path d="M1.83 77.01h4.12v11.47a.914.91 0 0 1-.914.91H.91a.914.91 0 0 1-.914-.91L0 78.83a1.828 1.82 0 0 1 1.83-1.82" style="fill:#999;fill-opacity:.5;stroke:none;stroke-width:7.17237997"/></g><g transform="translate(49.26 -35.807)"><title>g26</title><title>path22</title><path d="M0 77.01h4.12a1.828 1.82 0 0 1 1.83 1.82v9.65a.914.91 0 0 1-.914.91H.91a.914.91 0 0 1-.914-.91z" style="fill:#999;stroke:none;stroke-width:7.17237997"/><title>path24</title><path d="M0 77.01h4.12a1.828 1.82 0 0 1 1.83 1.82v9.65a.914.91 0 0 1-.914.91H.91a.914.91 0 0 1-.914-.91z" style="fill:#999;fill-opacity:.5;stroke:none;stroke-width:7.17237997"/></g><g transform="rotate(90 24.598 65.786)"><title>path28</title><path d="M1.81 35.28h4v54.11h-4A1.81 1.803 0 0 1 0 87.59V37.1a1.81 1.803 0 0 1 1.81-1.82" style="fill:#949494;stroke:none;stroke-width:7.17237997"/></g><g transform="translate(.884 -.003)"><title>g34</title><title>path30</title><path d="M.91 77.01h4.13a.914.91 0 0 1 .914.91L5.95 89.39H1.83A1.828 1.82 0 0 1 0 87.57v-9.65a.914.91 0 0 1 .914-.91z" style="fill:#999;stroke:none;stroke-width:7.17237997"/><title>path32</title><path d="M.91 77.01h4.13a.914.91 0 0 1 .914.91L5.95 89.39H1.83A1.828 1.82 0 0 1 0 87.57v-9.65a.914.91 0 0 1 .914-.91z" style="fill:#999;fill-opacity:.5;stroke:none;stroke-width:7.17237997"/></g><g transform="translate(49.26)"><title>g40</title><title>path36</title><path d="M.91 77h4.13a.914.91 0 0 1 .914.91l-.004 9.66a1.828 1.82 0 0 1-1.83 1.82H0V77.91A.914.91 0 0 1 .914 77z" style="fill:#999;stroke:none;stroke-width:7.17237997"/><title>path38</title><path d="M.91 77h4.13a.914.91 0 0 1 .914.91l-.004 9.66a1.828 1.82 0 0 1-1.83 1.82H0V77.91A.914.91 0 0 1 .914 77z" style="fill:#999;fill-opacity:.5;stroke:none;stroke-width:7.17237997"/></g><g transform="rotate(-90 27.554 61.844)"><title>path42</title><path d="M1.81 35.28h4v54.11h-4A1.81 1.803 0 0 1 0 87.59v-50.5a1.81 1.803 0 0 1 1.81-1.81" style="fill:#949494;stroke:none;stroke-width:7.17237997"/></g><g transform="translate(0 -13.144)"><title>path44</title><path d="m14.97 66.76 10.42 10.38a1.24 1.236 0 0 1 0 1.75L14.97 89.27a.554.551 0 0 1-.947-.392L14.02 82.5a.554.551-180 0 0-.554-.555L.44 81.94a.44.438 0 0 1-.444-.442L0 74.52a.44.438 0 0 1 .444-.438l13.026.008a.554.551-180 0 0 .554-.555l-.004-6.395a.554.551 0 0 1 .947-.385z" style="fill:url(#a);stroke:none;stroke-width:7.17237997"/></g><g transform="translate(30.938 -13.144)"><title>path46</title><path d="m14.97 66.76 10.42 10.38a1.247 1.242 0 0 1 0 1.75L14.97 89.27a.554.551 0 0 1-.947-.392L14.02 82.5a.557.555-180 0 0-.557-.555L.44 81.94a.44.438 0 0 1-.44-.442V74.52a.44.438 0 0 1 .44-.442l13.03.002a.557.555-180 0 0 .557-.555l-.007-6.385a.554.551 0 0 1 .947-.385z" style="fill:url(#b);stroke:none;stroke-width:7.17237997"/></g></g></g></svg>
